!!!!SEGMENT: pl-kk--kk-i-362--002_anonim--ave-maria.krn
!!!cenid: 17xx:2055
!!!COM: Anonim
!!!COM-rismid: pe30004985
!!!CDT:
!!!CNT:
!!!OTL: Ave Maria
!!!PDT:
!!!AGN: Sacred
!!!SMS-siglum: PL-Kk
!!!SMS-shelfmark: Kk.I.362
!!!SMS-shelfwork: 002 W
!!!SMS-variant:
!!!SMS-altvar:
!!!NIFC-rismid: 1001144502
!!!URL-scan: http://repozytorium.nifc.pl/skany/pl-kk-nut--i-362
!!!ONB-nifc: UWAGA: utwory w zbiorze: 1. Ave Hierarchia, 2. Ave Maria, 3. Sanctus sanctus, 4. Pleni sunt caeli
!!!AIN: 1 empty
!!!key:
**kern	**text
*Iempty	*
*I"[Basso]	*
*I'[B]	*
*clefF4	*
*k[b-]	*
*g:	*
*M2/1	*
*met(C|)	*
=1-	=1-
!LO:TX:t=P:problem=przy kluczu BB- B-	!
!LO:TX:t=P:problem=oznaczenie metryczne C|	!
0r	.
=2-	=2-
1D\	A-
2GG/	-ve
!LO:TX:t=P:problem=kreska pseudotaktowa	!
2BB-/	Ma-
=3-	=3-
1AA/	-ri-
!LO:TX:t=P:global:problem=kreska pionowa na różnych liniach [rozdzielacz słów / znak oddechu]	!
2GG,</	-a.
*2\right	*
!LO:TX:t=P:problem=kreska pseudotaktowa	!
2G\	/A-
=4-	=4-
2G\	-ve
!LO:TX:t=P:problem=kreska pseudotaktowa	!
2F\	Ma-
2G\	-ri-
!LO:TX:t=P:problem=kreska pseudotaktowa	!
2A\	.
=5-	=5-
2B-,<\	-a/
!LO:TX:t=P:problem=kreska pseudotaktowa	!
2B-\	a-
(4A\	-ve
4G\	.
4F\)	.
8E\L	Ma-
8D\J	.
=6-	=6-
1G\	-ri-
!LO:TX:t=P:problem=♯ above	!
2F#X,\	-a
*	*ij
!LO:TX:t=P:problem=kreska pseudotaktowa	!
2D\	a-
=7-	=7-
4E\|	-ve
4F\|	.
1G\	Ma-
2F#X\	-ri-
=8-	=8-
*custos:D	*
1G\,<	-a
*	*Xij
!!LO:LB:g=original
!LO:TX:t=P:problem=kreska pseudotaktowa	!
1D\	a-
=9-	=9-
2GG/	-ve
2BB-/	Ma-
1AA/	-ri-
=10-	=10-
2GG,</	-a
2.G\	Gra-
4G\	-ti-
2F\	-a
=11-	=11-
1E-X\	ple-
!LO:TX:t=P:problem=kreska pseudotaktowa	!
1D\	-na
=12-	=12-
0.r	.
=13-	=13-
2r	.
2.F\	Do-
4F\	-mi-
!LO:TX:t=P:problem=kreska pseudotaktowa	!
2E-X\	-n(us)
=14-	=14-
0.G\	Te-
=15-	=15-
.	.
2C,</	-cum
1C/	be-
=16-	=16-
.	.
2BB-/	-ne-
!LO:TX:t=P:problem=kreska pseudotaktowa	!
2.D/	-di-
4D/	-cta
=17-	=17-
2GG,</	Tu
1G\	be-
!LO:TX:t=P:problem=kreska pseudotaktowa	!
2F\	-ne-
=18-	=18-
2A\	-di-
*custos:D	*
!LO:TX:t=P:problem=kreska pseudotaktowa	!
2AA/	-cta
!!LO:LB:g=original
!LO:TX:t=P:problem=przy kluczu BB-	!
2D,</	Tu
1BB-/	be-
=19-	=19-
.	.
2AA/	-ne-
2.BB-/	-di-
4BB-/	-cta
=20-	=20-
*M4/4	*
*met(c)	*
2F\	Tu
4r	.
!LO:TX:t=P:problem=kreska pseudotaktowa	!
4F\	in
=21-	=21-
4.G\	mu-
8F\	-li-
4E-X\	-e-
!LO:TX:t=P:problem=kreska pseudotaktowa	!
4D\	.
=22-	=22-
!LO:SIC:v:s=4.E-	!
4.E\	.
8F\	.
8G\L	.
8A\J	.
!LO:TX:t=P:problem=kreska pseudotaktowa	!
4B-\	.
=23-	=23-
2E-X\	.
4.F\	.
!LO:TX:t=P:problem=kreska pseudotaktowa	!
8F\	-ri-
=24-	=24-
2BB-/	-b(us)
!LO:TX:t=P:problem=kreska pseudotaktowa	!
2r	.
=25-	=25-
!LO:TX:a:t=1.	!
1r	.
=26-	=26-
2D\	in
4.E-X\	mu-
8D\	-li-
=27-	=27-
*M2/1	*
*met(C|)	*
!LO:TX:t=P:problem=oznaczenie metryczne C|	!
2C/	-e-
2BBn/	.
2.C/	.
4C/	-ri-
=28-	=28-
!LO:TX:t=P:problem=kreska pseudotaktowa	!
1GG/	-bus
=29||-	=29||-
*M3/2	*
!LO:TX:t=P:problem=przy kluczu B- BB-	!
1.r	.
=30-	=30-
2D\	Et
2F\	be-
!LO:TX:t=P:problem=kreska pseudotaktowa	!
2G\	-ne-
=31-	=31-
2.A\	-di-
4A\	-ct(us)
4E\	Fru-
!LO:TX:t=P:problem=kreska pseudotaktowa	!
4E\	-ct(us)
=32-	=32-
!LO:TX:t=P:\right:problem	!
(4.F\	Ven-
8G\)	.
2A,\	-tris
!LO:TX:t=P:problem=brak kreski taktowej	!
2AA/	Tu-
=33-	=33-
!LO:TX:t=P:problem=kreska pseudotaktowa	!
1.D\	-i
=34-	=34-
1BBn/	Je-
!LO:TX:t=P:problem=kreska pseudotaktowa	!
2BB/	-sus
=35-	=35-
!LO:TX:t=P:problem=kreska pseudotaktowa	!
1.C/	X-
=36-	=36-
!LO:TX:t=P:problem=kreska pseudotaktowa	!
1.GG/	-t(us)
=37-	=37-
00.r	.
=38-	=38-
.	.
=39-	=39-
.	.
=40-	=40-
.	.
=41-	=41-
!LO:TX:t=P:problem=kreska pseudotaktowa	!
0.r	.
=42-	=42-
*custos:C	*
.	.
!LO:TX:b:t=Cito	!
!!LO:PB:g=original
=43-	=43-
2C/	S(an)-
2C,</	-cta
2C/	Ma-
=44-	=44-
1D\	-ri-
2BB-/	-a
=45-	=45-
2BB-/	Ma-
(2.AA/	-ter
4BB-/)	.
=46-	=46-
0.C/	De-
=47-	=47-
!LO:TX:t=P:problem=kreska pseudotaktowa	!
00.FF/;	-i.
=48||-	=48||-
*M4/4	*
*met(c)	*
4D/	O-
8D/	-ra
8D/	p(ro)
4D/	no-
4D/	-bis
=49-	=49-
*M2/1	*
*met(C|)	*
!LO:TX:t=P:problem=oznaczenie metryczne C|	!
2G\	pec-
!LO:TX:t=P:problem=kreska pseudotaktowa	!
2F#X\	-ca-
2.G\	-to-
4G\	-ri-
=50-	=50-
!LO:TX:t=P:problem=kreska pseudotaktowa	!
1D\	-b(us)
=51-	=51-
*M4/4	*
*met(c)	*
4r	.
4B-\	nunc
4.A\	et
8A\	in
=52-	=52-
*M2/1	*
*met(C|)	*
2G\	ho-
!LO:TX:t=P:problem=♯ above	!
2F#X\	-ra
!!LO:LB:g=original
1G\	mor-
=53-	=53-
!LO:TX:t=P:problem=kreska pseudotaktowa	!
1F\	-tis
1E-X\	no-
=54-	=54-
1D\,<	-strae
=55-	=55-
*M3/2	*
1BB-/	A-
!LO:TX:t=P:problem=kreska pseudotaktowa	!
2F\	-men
=56-	=56-
2G\	A-
2C/	.
!LO:TX:t=P:problem=kreska pseudotaktowa	!
2D\	.
=57-	=57-
2G\	.
2GG/	.
!LO:TX:t=P:problem=kreska pseudotaktowa	!
2D\	.
=58-	=58-
4GG/	.
4AA/	.
4BB-/	.
4C/	.
!LO:TX:t=P:problem=kreska pseudotaktowa	!
2D\	.
=59-	=59-
1G\	.
!LO:TX:t=P:problem=kreska pseudotaktowa	!
2F#X\	.
=60-	=60-
!LO:TX:t=P:problem=kreska pseudotaktowa	!
1.G\	.
=61-	=61-
00.D\;	-men.
=-	=-
*-	*-
!!!RDF**kern: > = above
!!!RDF**kern: < = below
!!!EED: Leszek Kubiak
!!!EST: 2021-02-27
!!!ENC: Andrzej Kubiczek
!!!END: 2021-02-18
!!!RDF**kern: | = vertical stroke
